symbolic/32x32/apps/hdajackretask.svg

<svg xmlns="http://www.w3.org/2000/svg" width="32" height="32" version="1">
 <rect style="opacity:0.2" width="28" height="28" x="2" y="3" rx="1.4" ry="1.4"/>
 <rect style="fill:#e4e4e4" width="28" height="28" x="2" y="2" rx="1.4" ry="1.4"/>
 <path style="opacity:0.1" d="M 19.125,9.9744684 20.087891,10.937359 6.4707031,25.505718 7.5292969,26.494 21.113281,11.96275 l 0.91211,0.912109 V 9.9744684 Z"/>
 <path style="fill:none;stroke:#c62828;stroke-width:1.45000005" d="M 7,25 21.335294,9.6647055"/>
 <path style="fill:#c62828" d="m 19.125,8.975 h 2.9 v 2.9 z"/>
 <path style="opacity:0.1" d="m 7.3203125,7.3494684 -0.640625,1.3007812 12.4179685,6.1132814 -0.599609,1.037109 2.802734,-0.75 -0.751953,-2.802734 -0.724609,1.255859 z"/>
 <path style="fill:none;stroke:#2e7d32;stroke-width:1.45000005" d="m 7,7 13.002405,6.401203"/>
 <path style="fill:#2e7d32" d="M 18.498815,14.800575 21.3,14.05 20.549425,11.248815 Z"/>
 <path style="opacity:0.1" d="M 7,5 A 3,3 0 0 0 4,8 3,3 0 0 0 7,11 3,3 0 0 0 10,8 3,3 0 0 0 7,5 Z m 18,0 a 3,3 0 0 0 -3,3 3,3 0 0 0 3,3 3,3 0 0 0 3,-3 3,3 0 0 0 -3,-3 z M 7,14 a 3,3 0 0 0 -3,3 3,3 0 0 0 3,3 3,3 0 0 0 3,-3 3,3 0 0 0 -3,-3 z m 18,0 a 3,3 0 0 0 -3,3 3,3 0 0 0 3,3 3,3 0 0 0 3,-3 3,3 0 0 0 -3,-3 z M 7,23 a 3,3 0 0 0 -3,3 3,3 0 0 0 3,3 3,3 0 0 0 3,-3 3,3 0 0 0 -3,-3 z m 18,0 a 3,3 0 0 0 -3,3 3,3 0 0 0 3,3 3,3 0 0 0 3,-3 3,3 0 0 0 -3,-3 z"/>
 <circle style="fill:#9e9e9e" cx="7" cy="16" r="3"/>
 <circle style="fill:#f44336" cx="7" cy="25" r="3"/>
 <circle style="fill:#f44336" cx="25" cy="7" r="3"/>
 <circle style="fill:#4caf50" cx="25" cy="16" r="3"/>
 <circle style="fill:#9e9e9e" cx="25" cy="25" r="3"/>
 <circle style="fill:#4caf50" cx="7" cy="7" r="3"/>
 <path style="fill:#ffffff;opacity:0.2" d="M 3.4003906 2 C 2.6247906 2 2 2.6247906 2 3.4003906 L 2 4.4003906 C 2 3.6247906 2.6247906 3 3.4003906 3 L 28.599609 3 C 29.375209 3 30 3.6247906 30 4.4003906 L 30 3.4003906 C 30 2.6247906 29.375209 2 28.599609 2 L 3.4003906 2 z"/>
</svg>

<svg xmlns="http://www.w3.org/2000/svg" width="32" height="32" version="1"><rect style="opacity:.2" width="28" height="28" x="2" y="3" rx="1.4" ry="1.4"/><rect style="fill:#e4e4e4" width="28" height="28" x="2" y="2" rx="1.4" ry="1.4"/><path style="opacity:.1" d="m19.125 9.974.963.963L6.47 25.506l1.058.988 13.584-14.531.912.912v-2.9z"/><path style="fill:none;stroke:#c62828;stroke-width:1.45000005" d="M7 25 21.335 9.665"/><path style="fill:#c62828" d="M19.125 8.975h2.9v2.9z"/><path style="opacity:.1" d="m7.32 7.35-.64 1.3 12.418 6.114-.6 1.037 2.803-.75-.752-2.803-.725 1.256z"/><path style="fill:none;stroke:#2e7d32;stroke-width:1.45000005" d="m7 7 13.002 6.401"/><path style="fill:#2e7d32" d="m18.499 14.8 2.801-.75-.75-2.801z"/><path style="opacity:.1" d="M7 5a3 3 0 0 0-3 3 3 3 0 0 0 3 3 3 3 0 0 0 3-3 3 3 0 0 0-3-3zm18 0a3 3 0 0 0-3 3 3 3 0 0 0 3 3 3 3 0 0 0 3-3 3 3 0 0 0-3-3zM7 14a3 3 0 0 0-3 3 3 3 0 0 0 3 3 3 3 0 0 0 3-3 3 3 0 0 0-3-3zm18 0a3 3 0 0 0-3 3 3 3 0 0 0 3 3 3 3 0 0 0 3-3 3 3 0 0 0-3-3zM7 23a3 3 0 0 0-3 3 3 3 0 0 0 3 3 3 3 0 0 0 3-3 3 3 0 0 0-3-3zm18 0a3 3 0 0 0-3 3 3 3 0 0 0 3 3 3 3 0 0 0 3-3 3 3 0 0 0-3-3z"/><circle style="fill:#9e9e9e" cx="7" cy="16" r="3"/><circle style="fill:#f44336" cx="7" cy="25" r="3"/><circle style="fill:#f44336" cx="25" cy="7" r="3"/><circle style="fill:#4caf50" cx="25" cy="16" r="3"/><circle style="fill:#9e9e9e" cx="25" cy="25" r="3"/><circle style="fill:#4caf50" cx="7" cy="7" r="3"/><path style="fill:#fff;opacity:.2" d="M3.4 2C2.625 2 2 2.625 2 3.4v1C2 3.625 2.625 3 3.4 3h25.2c.775 0 1.4.625 1.4 1.4v-1c0-.775-.625-1.4-1.4-1.4H3.4z"/></svg>
